assets/icons/qvision/http.svg

<svg xmlns="http://www.w3.org/2000/svg" height="24" viewBox="0 0 24 24" width="24"><path d="M4.5 11h-2V9H1v6h1.5v-2.5h2V15H6V9H4.5v2zm2.5-.5h1.5V15H10v-4.5h1.5V9H7v1.5zm5.5 0H14V15h1.5v-4.5H17V9h-4.5v1.5zm9-1.5H18v6h1.5v-2h2c.8 0 1.5-.7 1.5-1.5v-1c0-.8-.7-1.5-1.5-1.5zm0 2.5h-2v-1h2v1z"/><path d="M24 24H0V0h24v24z" fill="none"/></svg>

<svg width="24" height="24" viewBox="0 0 24 24" fill="none" xmlns="http://www.w3.org/2000/svg">
<g clip-path="url(#clip0_147_4311)">
<path d="M4.5 11H2.5V9H1V15H2.5V12.5H4.5V15H6V9H4.5V11ZM7 10.5H8.5V15H10V10.5H11.5V9H7V10.5ZM12.5 10.5H14V15H15.5V10.5H17V9H12.5V10.5ZM21.5 9H18V15H19.5V13H21.5C22.3 13 23 12.3 23 11.5V10.5C23 9.7 22.3 9 21.5 9ZM21.5 11.5H19.5V10.5H21.5V11.5Z" fill="#323232"/>
</g>
<defs>
<clipPath id="clip0_147_4311">
<rect width="24" height="24" fill="white"/>
</clipPath>
</defs>
</svg>
